symbols/web/wallpaper/materialsymbolsrounded/wallpaper_wght500_20px.svg

<svg xmlns="http://www.w3.org/2000/svg" height="20" width="20"><path d="M12.917 8.333q-.542 0-.896-.354t-.354-.896q0-.541.354-.895.354-.355.896-.355.541 0 .895.355.355.354.355.895 0 .542-.355.896-.354.354-.895.354Zm-9.605.709q-.395 0-.687-.292-.292-.292-.292-.688v-3.75q0-.833.573-1.406t1.406-.573h3.75q.396 0 .688.292.292.292.292.687 0 .417-.292.709-.292.291-.688.291h-3.75v3.75q0 .396-.291.688-.292.292-.709.292Zm1 8.625q-.833 0-1.406-.573t-.573-1.406v-3.75q0-.396.292-.688.292-.292.687-.292.417 0 .709.292.291.292.291.688v3.75h3.75q.396 0 .688.291.292.292.292.709 0 .395-.292.687-.292.292-.688.292Zm12.376-8.625q-.417 0-.709-.292-.291-.292-.291-.688v-3.75h-3.75q-.396 0-.688-.291-.292-.292-.292-.709 0-.395.292-.687.292-.292.688-.292h3.75q.833 0 1.406.573t.573 1.406v3.75q0 .396-.292.688-.292.292-.687.292Zm-4.75 8.625q-.396 0-.688-.292-.292-.292-.292-.687 0-.417.292-.709.292-.291.688-.291h3.75v-3.75q0-.396.291-.688.292-.292.709-.292.395 0 .687.292.292.292.292.688v3.75q0 .833-.573 1.406t-1.406.573Zm-5.917-3.563q-.313 0-.459-.281-.145-.281.042-.552l1.521-2.042Q7.271 11 7.542 11q.27 0 .437.229l1.417 1.896 2.021-2.708q.166-.229.427-.24.26-.01.427.219l2.146 2.875q.187.271.041.552t-.458.281Z"/></svg>

<svg xmlns="http://www.w3.org/2000/svg" height="20" width="20"><path d="M12.917 8.333Q12.375 8.333 12.021 7.979Q11.667 7.625 11.667 7.083Q11.667 6.542 12.021 6.188Q12.375 5.833 12.917 5.833Q13.458 5.833 13.812 6.188Q14.167 6.542 14.167 7.083Q14.167 7.625 13.812 7.979Q13.458 8.333 12.917 8.333ZM3.312 9.042Q2.917 9.042 2.625 8.75Q2.333 8.458 2.333 8.062V4.312Q2.333 3.479 2.906 2.906Q3.479 2.333 4.312 2.333H8.062Q8.458 2.333 8.75 2.625Q9.042 2.917 9.042 3.312Q9.042 3.729 8.75 4.021Q8.458 4.312 8.062 4.312H4.312Q4.312 4.312 4.312 4.312Q4.312 4.312 4.312 4.312V8.062Q4.312 8.458 4.021 8.75Q3.729 9.042 3.312 9.042ZM4.312 17.667Q3.479 17.667 2.906 17.094Q2.333 16.521 2.333 15.688V11.938Q2.333 11.542 2.625 11.25Q2.917 10.958 3.312 10.958Q3.729 10.958 4.021 11.25Q4.312 11.542 4.312 11.938V15.688Q4.312 15.688 4.312 15.688Q4.312 15.688 4.312 15.688H8.062Q8.458 15.688 8.75 15.979Q9.042 16.271 9.042 16.688Q9.042 17.083 8.75 17.375Q8.458 17.667 8.062 17.667ZM16.688 9.042Q16.271 9.042 15.979 8.75Q15.688 8.458 15.688 8.062V4.312Q15.688 4.312 15.688 4.312Q15.688 4.312 15.688 4.312H11.938Q11.542 4.312 11.25 4.021Q10.958 3.729 10.958 3.312Q10.958 2.917 11.25 2.625Q11.542 2.333 11.938 2.333H15.688Q16.521 2.333 17.094 2.906Q17.667 3.479 17.667 4.312V8.062Q17.667 8.458 17.375 8.75Q17.083 9.042 16.688 9.042ZM11.938 17.667Q11.542 17.667 11.25 17.375Q10.958 17.083 10.958 16.688Q10.958 16.271 11.25 15.979Q11.542 15.688 11.938 15.688H15.688Q15.688 15.688 15.688 15.688Q15.688 15.688 15.688 15.688V11.938Q15.688 11.542 15.979 11.25Q16.271 10.958 16.688 10.958Q17.083 10.958 17.375 11.25Q17.667 11.542 17.667 11.938V15.688Q17.667 16.521 17.094 17.094Q16.521 17.667 15.688 17.667ZM6.021 14.104Q5.708 14.104 5.562 13.823Q5.417 13.542 5.604 13.271L7.125 11.229Q7.271 11 7.542 11Q7.812 11 7.979 11.229L9.396 13.125L11.417 10.417Q11.583 10.188 11.844 10.177Q12.104 10.167 12.271 10.396L14.417 13.271Q14.604 13.542 14.458 13.823Q14.312 14.104 14 14.104Z"/></svg>
